X: 99
T: The High Reel ( AKA Duffy the Dancer )
B: begged borrowed and stolen
M:4/4
L:1/8
Q: 1/4=140
K:D
V:1 
|:"A"a2 fa eA A2|cA eA fA A2|a2 fa eA A2|"G"Bcdc BG G2|"A"a2 fa eA A2|cdef "G"g2 fg|
"A"af ge fd ec|"G"Bcdc BG G2:||:"A"{A}cA eA fA eA|{A}cA af eA A2|cA eA fA eA|"G"Bcdc BG G2|
"A"{A}cA eA fA eA|cdef "G"g2 fg|"A"af ge fd ec|"G"Bcdc BG G2:|
% abcbook-tune_id 627e2b1f73568a2ffcc50d60


% abcbook-boost 0
% abcbook-tablature 
% abcbook-transpose 
% abcbook-lastupdated 1652725431144
% abcbook-soundfonts 
% abcbook-repeats 3
% Titles One title
% Transcriptions Only 1 transcription
% Mode major
% Key D
% Time_signature 2/2
% Has_accompaniment_chords Has chords

